svg/Pictogram/pictograms-aem-0122-hand_or_arm_entanglement-auger.svg

<?xml version="1.0" encoding="ISO-8859-1" standalone="yes"?>
<svg height="305.909" width="305.905">
  <metadata>
    <rdf:RDF xmlns:cc="http://web.resource.org/cc/" xmlns:dc="http://purl.org/dc/elements/1.1/" xmlns:rdf="http://www.w3.org/1999/02/22-rdf-syntax-ns#">
      <cc:Work rdf:about="">
        <dc:title></dc:title>
        <dc:description></dc:description>
        <dc:subject>
          <rdf:Bag>
            <rdf:li></rdf:li>
          </rdf:Bag>
        </dc:subject>
        <dc:publisher>
          <cc:Agent rdf:about="http://www.unece.org/trans/danger/publi/ghs/pictograms.html">
            <dc:title>Source: UNECE GHS of Classification and Labeling of Chemicals, Source: AEM Pictorial Database, Source: AEM Pictorial Database, Source: AEM Pictorial Database, Source: AEM Pictorial Database</dc:title>
          </cc:Agent>
        </dc:publisher>
        <dc:creator>
          <cc:Agent>
            <dc:title></dc:title>
          </cc:Agent>
        </dc:creator>
        <dc:rights>
          <cc:Agent>
            <dc:title></dc:title>
          </cc:Agent>
        </dc:rights>
        <dc:date></dc:date>
        <dc:format>image/svg+xml</dc:format>
        <dc:type rdf:resource="http://purl.org/dc/dcmitype/StillImage"/>
        <cc:license rdf:resource="http://en.wikipedia.org/wiki/Public_domain"/>
        <dc:language>en</dc:language>
      </cc:Work>
    </rdf:RDF>
  </metadata>
  <defs><marker id="ArrowEnd" markerHeight="3" markerUnits="strokeWidth" markerWidth="4" orient="auto" refX="0" refY="5" viewBox="0 0 10 10"><path d="M 0 0 L 10 5 L 0 10 z"/></marker><marker id="ArrowStart" markerHeight="3" markerUnits="strokeWidth" markerWidth="4" orient="auto" refX="10" refY="5" viewBox="0 0 10 10"><path d="M 10 0 L 0 5 L 10 10 z"/></marker> </defs>
  <g id="g2958" transform="matrix(1.3532768,0,0,1.3532781,-53.207834,-52.192858)">
    <path d="M 195.729 87.9764L 195.745 71.7454L 195.757 71.7334C 196.268 71.5424 196.319 71.1164 196.319 70.9604C 196.319 62.5654 197.722 60.7494 197.886 60.5694C 198.417 60.3544 202.007 58.9254 206.011 57.3824L 205.991 84.3664C 204.925 85.0344 200.753 86.4014 197.034 87.5894C 196.589 87.7294 196.159 87.8354 195.729 87.9764" style="stroke:none; fill-rule:evenodd; fill:#000000"/>
    <path d="M 195.71 127.636L 195.729 102.847L 195.737 102.729C 196.179 102.526 196.222 102.136 196.222 101.987C 196.222 93.5894 197.632 91.7804 197.796 91.6004C 198.323 91.3904 202.03 89.8934 206.018 88.3584L 206.015 124.011C 206.015 124.011 204.339 124.808 202.151 125.526C 199.964 126.245 195.71 127.636 195.71 127.636" style="stroke:none; fill-rule:evenodd; fill:#000000"/>
    <path d="M 205.964 53.4174C 204.831 54.0934 200.725 55.4014 197.081 56.5694C 196.64 56.7104 196.206 56.8474 195.78 56.9834L 195.78 56.9794L 195.792 43.9294L 205.999 43.9294L 205.999 53.0734L 205.964 53.4174" style="stroke:none; fill-rule:evenodd; fill:#000000"/>
    <path d="M 153.323 121.308C 162.479 121.308 169.905 113.886 169.905 104.729C 169.905 95.5694 162.479 88.1514 153.323 88.1514C 144.167 88.1514 136.745 95.5694 136.745 104.729C 136.745 113.886 144.167 121.308 153.323 121.308" style="stroke:none; fill-rule:evenodd; fill:#000000"/>
    <path d="M 111.194 173.143C 114.026 168.569 112.608 162.569 108.038 159.726C 103.46 156.893 97.4602 158.315 94.6243 162.897C 91.7884 167.476 93.2063 173.483 97.7766 176.308C 102.355 179.136 108.354 177.714 111.194 173.143" style="stroke:none; fill-rule:evenodd; fill:#000000"/>
    <path d="M 80.4407 222.828C 83.2806 218.249 81.8587 212.242 77.2923 209.421C 72.7181 206.589 66.7102 207.995 63.8782 212.578C 61.0423 217.156 62.4642 223.152 67.0345 225.995C 71.6165 228.82 77.6204 227.406 80.4407 222.828" style="stroke:none; fill-rule:evenodd; fill:#000000"/>
    <path d="M 80.2259 223.152L 63.6634 212.902L 94.6048 162.886L 111.175 173.136L 80.2259 223.152" style="stroke:none; fill-rule:evenodd; fill:#000000"/>
    <path d="M 98.4563 176.206L 148.182 207.144L 158.468 190.589L 108.749 159.64L 98.4563 176.206" style="stroke:none; fill-rule:evenodd; fill:#000000"/>
    <path d="M 162.069 188.386C 157.37 191.018 155.69 196.952 158.323 201.643C 160.952 206.339 166.89 208.019 171.589 205.382C 176.276 202.757 177.952 196.815 175.323 192.124C 172.698 187.429 166.749 185.753 162.069 188.386" style="stroke:none; fill-rule:evenodd; fill:#000000"/>
    <path d="M 162.042 188.331L 171.565 205.331L 120.558 233.945L 111.038 216.945L 162.042 188.331" style="stroke:none; fill-rule:evenodd; fill:#000000"/>
    <path d="M 74.0227 249.253C 71.3977 244.554 65.4563 242.89 60.7649 245.515C 56.0696 248.144 54.3977 254.074 57.0227 258.773C 59.6595 263.464 65.5892 265.14 70.2884 262.507C 74.9759 259.882 76.6556 253.945 74.0227 249.253" style="stroke:none; fill-rule:evenodd; fill:#000000"/>
    <path d="M 111.768 216.937L 60.4212 245.695L 69.9485 262.699L 121.3 233.945L 111.768 216.937" style="stroke:none; fill-rule:evenodd; fill:#000000"/>
    <path d="M 137.808 196.038L 176.702 196.038L 176.702 127.632L 137.808 127.632L 137.808 196.038z" style="stroke:none; fill-rule:evenodd; fill:#000000"/>
    <path d="M 182.339 138.89L 169.597 147.44L 158.503 131.206L 193.542 107.331L 193.542 126.987C 193.542 126.987 181.007 130.897 179.417 133.284C 178.495 134.667 179.343 135.893 182.339 138.89" style="stroke:none; fill-rule:evenodd; fill:#000000"/>
    <path d="M 226.808 141.96C 223.44 146.147 224.112 152.28 228.311 155.647C 232.499 159.015 238.636 158.343 242.003 154.143C 245.366 149.948 244.698 143.819 240.499 140.452C 236.308 137.085 230.179 137.757 226.808 141.96" style="stroke:none; fill-rule:evenodd; fill:#000000"/>
    <path d="M 224.948 152.94L 228.28 155.686L 240.612 140.311L 219.925 123.686C 219.925 123.686 215.089 126.675 208.179 128.518L 208.245 139.499L 215.507 145.265C 215.507 145.265 223.643 147.413 224.948 152.94" style="stroke:none; fill-rule:evenodd; fill:#000000"/>
    <path d="M 84.0423 98.5894C 87.0852 94.1514 85.9407 88.0854 81.5032 85.0464C 77.0618 82.0114 70.9954 83.1474 67.9602 87.5894C 64.9173 92.0304 66.0618 98.0934 70.5032 101.128C 74.9407 104.163 81.0071 103.03 84.0423 98.5894" style="stroke:none; fill-rule:evenodd; fill:#000000"/>
    <path d="M 81.6321 84.8584L 70.5032 101.132L 142.823 150.651L 153.956 134.374L 81.6321 84.8584" style="stroke:none; fill-rule:evenodd; fill:#000000"/>
    <path d="M 195.682 167.069L 195.706 138.456C 195.706 138.456 196.085 134.311 196.69 132.71C 197.175 131.429 197.487 131.366 197.487 131.366L 205.964 128.003L 206.015 127.987L 206.007 163.476L 205.972 163.53C 204.897 164.206 200.71 165.558 196.964 166.765C 196.53 166.901 196.108 167.038 195.69 167.175L 195.682 167.069" style="stroke:none; fill-rule:evenodd; fill:#000000"/>
    <path d="M 195.682 204.566L 195.706 177.913C 195.706 177.913 196.085 173.768 196.69 172.171C 197.175 170.89 197.487 170.827 197.487 170.827L 205.964 167.464L 206.015 167.448L 206.007 200.968L 205.972 201.026C 204.897 201.702 200.71 203.05 196.964 204.257C 196.53 204.398 196.108 204.535 195.69 204.671L 195.682 204.566" style="stroke:none; fill-rule:evenodd; fill:#000000"/>
    <path d="M 195.612 239.191L 195.612 214.624C 195.612 214.624 195.788 210.453 196.393 208.851C 196.878 207.57 197.19 207.507 197.19 207.507L 205.882 204.171L 205.932 204.156L 205.925 239.191L 195.612 239.191" style="stroke:none; fill-rule:evenodd; fill:#000000"/>
    <path d="M 186.925 98.7764C 183.468 96.8544 182.198 95.3904 182.163 94.7224C 182.1 93.3664 192.007 90.1984 197.327 88.4994C 205.272 85.9564 207.132 85.2724 207.132 84.3704L 207.132 66.0224C 207.132 65.9404 207.147 65.9134 207.218 65.8744C 208.749 65.0424 217.28 68.5584 220.19 70.4404C 222.011 71.6244 223.007 73.3904 223.007 75.3744C 223.007 75.6434 222.991 75.9174 222.952 76.1904C 222.585 78.9054 220.182 82.4404 214.542 84.2294C 209.909 85.7024 197.468 90.7024 197.343 90.7534L 197.284 90.7764L 197.237 90.8114C 197.034 90.9644 195.284 92.5544 195.268 101.874C 194.558 102.108 190.804 100.936 186.925 98.7764" style="stroke:none; fill-rule:evenodd; fill:#000000"/>
    <path d="M 223.55 43.7764C 223.882 47.4444 220.956 51.6904 214.776 53.6554C 210.1 55.1364 197.612 60.1634 197.612 60.1634C 197.612 60.1634 195.843 61.4954 195.843 70.9644C 195.843 72.9404 181.948 66.7964 181.788 63.7144C 181.643 60.7534 206.651 54.9054 206.651 53.3624C 206.651 49.7294 206.675 46.6284 206.651 43.9834" style="stroke:none; fill-rule:evenodd; fill:#000000"/>
    <path d="M 195.35 141.804C 195.35 143.788 181.452 137.64 181.304 134.554C 181.147 131.593 206.651 125.62 206.651 124.073C 206.651 114.518 206.651 108.421 206.651 105.901C 206.651 103.393 217.007 107.882 220.05 109.854C 225.515 113.405 223.597 121.538 214.272 124.495C 209.616 125.976 197.12 131.011 197.12 131.011C 197.12 131.011 195.35 132.343 195.35 141.804" style="stroke:none; fill-rule:evenodd; fill:#000000"/>
    <path d="M 186.663 177.983C 183.265 176.077 182.015 174.663 181.983 173.972C 181.913 172.612 191.893 169.397 197.257 167.671C 205.261 165.093 207.132 164.401 207.132 163.495L 207.132 145.561C 207.132 145.472 207.151 145.433 207.237 145.39C 208.718 144.577 216.866 147.675 219.995 149.69C 221.811 150.874 222.811 152.64 222.811 154.62C 222.811 154.893 222.792 155.167 222.753 155.444C 222.386 158.155 219.979 161.69 214.335 163.479C 209.706 164.952 197.272 169.948 197.147 169.999L 197.089 170.022L 197.038 170.061C 196.839 170.21 195.097 171.808 195.081 181.128C 194.358 181.362 190.569 180.171 186.663 177.983zM 195.077 181.245" style="stroke:none; fill-rule:evenodd; fill:#000000"/>
    <path d="M 186.663 214.898C 183.265 212.992 182.015 211.578 181.983 210.886C 181.913 209.527 191.893 206.312 197.257 204.585C 205.261 202.007 207.132 201.311 207.132 200.409L 207.132 182.476C 207.132 182.386 207.151 182.347 207.237 182.3C 208.718 181.491 216.866 184.589 219.995 186.604C 221.811 187.788 222.811 189.554 222.811 191.534C 222.811 191.804 222.792 192.081 222.753 192.358C 222.386 195.069 219.979 198.604 214.335 200.393C 209.706 201.866 197.272 206.863 197.147 206.913L 197.089 206.937L 197.038 206.976C 196.839 207.124 195.097 208.722 195.081 218.042C 194.358 218.277 190.569 217.085 186.663 214.898zM 195.077 218.156" style="stroke:none; fill-rule:evenodd; fill:#000000"/>
    <path d="M 206.659 239.167C 206.682 234.421 206.651 224.847 206.651 222.527C 206.651 220.007 217.011 224.195 220.058 226.167C 224.706 229.183 224.018 235.503 218.003 239.156" style="stroke:none; fill-rule:evenodd; fill:#000000"/>
    <path d="M 206.659 239.167C 206.682 234.421 206.651 224.847 206.651 222.527C 206.651 220.007 217.011 224.195 220.058 226.167C 224.706 229.183 224.018 235.503 218.003 239.156" style="stroke:#ffffff; stroke-width:0.9546; fill:none"/>
    <path d="M 29.6204 267.288L 2.62042 267.288" style="stroke:#000000; stroke-width:0.5; fill:none"/>
    <path d="M 38.6204 276.288L 38.6204 303.288" style="stroke:#000000; stroke-width:0.5; fill:none"/>
    <path d="M 29.6204 38.6204L 2.62042 38.6204" style="stroke:#000000; stroke-width:0.5; fill:none"/>
    <path d="M 38.6204 29.6204L 38.6204 2.62042" style="stroke:#000000; stroke-width:0.5; fill:none"/>
    <path d="M 276.284 38.6204L 303.284 38.6204" style="stroke:#000000; stroke-width:0.5; fill:none"/>
    <path d="M 267.284 29.6204L 267.284 2.62042" style="stroke:#000000; stroke-width:0.5; fill:none"/>
    <path d="M 276.284 267.288L 303.284 267.288" style="stroke:#000000; stroke-width:0.5; fill:none"/>
    <path d="M 267.284 276.288L 267.284 303.288" style="stroke:#000000; stroke-width:0.5; fill:none"/>
  </g>
</svg>

<svg viewBox="0 0 305.9 305.91"><g transform="matrix(1.35328 0 0 1.35328-53.21-52.19)"><g fill-rule="evenodd"><path d="m195.73 87.976l.016-16.231.012-.012c.511-.191.562-.617.562-.773 0-8.395 1.403-10.211 1.567-10.391.531-.215 4.121-1.644 8.125-3.187l-.02 26.984c-1.066.668-5.238 2.035-8.957 3.223-.445.14-.875.246-1.305.387"/><path d="m195.71 127.64l.019-24.789.008-.118c.442-.203.485-.593.485-.742 0-8.398 1.41-10.207 1.574-10.387.527-.21 4.234-1.707 8.222-3.242l-.003 35.653c0 0-1.676.797-3.864 1.515-2.187.719-6.441 2.11-6.441 2.11"/><path d="m205.96 53.42c-1.133.676-5.239 1.984-8.883 3.152-.441.141-.875.278-1.301.414v-.004l.012-13.05h10.207v9.144l-.035.344"/><path d="m153.32 121.31c9.156 0 16.582-7.422 16.582-16.579 0-9.16-7.426-16.578-16.582-16.578-9.156 0-16.578 7.418-16.578 16.578 0 9.157 7.422 16.579 16.578 16.579"/><path d="m111.19 173.14c2.832-4.574 1.414-10.574-3.156-13.417-4.578-2.833-10.578-1.411-13.414 3.171-2.836 4.579-1.418 10.586 3.152 13.411 4.578 2.828 10.577 1.406 13.417-3.165"/><path d="m80.44 222.83c2.84-4.579 1.418-10.586-3.148-13.407-4.574-2.832-10.582-1.426-13.414 3.157-2.836 4.578-1.414 10.574 3.156 13.417 4.582 2.825 10.586 1.411 13.406-3.167"/><path d="m80.23 223.15l-16.562-10.25 30.941-50.02 16.57 10.25-30.949 50.02"/><path d="m98.46 176.21l49.726 30.938 10.286-16.555-49.719-30.949-10.293 16.566"/><path d="m162.07 188.39c-4.699 2.632-6.379 8.566-3.746 13.257 2.629 4.696 8.567 6.376 13.266 3.739 4.687-2.625 6.363-8.567 3.734-13.258-2.625-4.695-8.574-6.371-13.254-3.738"/><path d="m162.04 188.33l9.523 17-51.01 28.614-9.52-17 51-28.614"/><path d="m74.02 249.25c-2.625-4.699-8.566-6.363-13.258-3.738-4.695 2.629-6.367 8.559-3.742 13.258 2.637 4.691 8.567 6.367 13.266 3.734 4.688-2.625 6.367-8.562 3.734-13.254"/><path d="m111.77 216.94l-51.35 28.758 9.527 17 51.35-28.754-9.532-17.01"/><path d="m137.81 196.04h38.894v-68.41h-38.894v68.41"/><path d="m182.34 138.89l-12.742 8.55-11.09-16.234 35.04-23.875v19.656c0 0-12.535 3.91-14.12 6.297-.922 1.383-.074 2.609 2.922 5.606"/><path d="m226.81 141.96c-3.368 4.187-2.696 10.32 1.503 13.687 4.188 3.368 10.325 2.696 13.692-1.504 3.363-4.195 2.695-10.324-1.504-13.691-4.191-3.367-10.32-2.695-13.691 1.508"/><path d="m224.95 152.94l3.332 2.746 12.332-15.375-20.687-16.625c0 0-4.836 2.989-11.746 4.832l.066 10.981 7.262 5.766c0 0 8.136 2.148 9.441 7.675"/><path d="m84.04 98.59c3.043-4.438 1.898-10.504-2.539-13.543-4.441-3.035-10.508-1.899-13.543 2.543-3.043 4.441-1.898 10.504 2.543 13.539 4.438 3.035 10.504 1.902 13.539-2.539"/><path d="m81.63 84.86l-11.129 16.274 72.32 49.52 11.133-16.277-72.32-49.52"/><path d="m195.68 167.07l.024-28.613c0 0 .379-4.145.984-5.746.485-1.281.797-1.344.797-1.344l8.477-3.363.051-.016-.008 35.489-.035.054c-1.075.676-5.262 2.028-9.01 3.235-.434.136-.856.273-1.274.41l-.008-.106"/><path d="m195.68 204.57l.024-26.653c0 0 .379-4.145.984-5.742.485-1.281.797-1.344.797-1.344l8.477-3.363.051-.016-.008 33.52-.035.058c-1.075.676-5.262 2.024-9.01 3.231-.434.141-.856.278-1.274.414l-.008-.105"/><path d="m195.61 239.19v-24.567c0 0 .176-4.171.781-5.773.485-1.281.797-1.344.797-1.344l8.692-3.336.05-.015-.007 35.03h-10.313"/><path d="m186.93 98.78c-3.457-1.922-4.727-3.386-4.762-4.054-.063-1.356 9.844-4.524 15.16-6.223 7.945-2.543 9.805-3.227 9.805-4.129v-18.348c0-.082.015-.109.086-.148 1.531-.832 10.06 2.684 12.972 4.566 1.821 1.184 2.817 2.95 2.817 4.934 0 .269-.016.543-.055.816-.367 2.715-2.77 6.25-8.41 8.04-4.633 1.473-17.07 6.473-17.199 6.524l-.059.023-.047.035c-.203.153-1.953 1.743-1.969 11.06-.71.234-4.464-.938-8.343-3.098"/><path d="m223.55 43.776c.332 3.668-2.594 7.914-8.774 9.879-4.676 1.481-17.16 6.508-17.16 6.508 0 0-1.769 1.332-1.769 10.801 0 1.976-13.895-4.168-14.05-7.25-.145-2.961 24.863-8.809 24.863-10.352 0-3.633.024-6.734 0-9.379"/><path d="m195.35 141.8c0 1.984-13.898-4.164-14.05-7.25-.157-2.961 25.347-8.934 25.347-10.481 0-9.555 0-15.652 0-18.17 0-2.508 10.356 1.981 13.399 3.953 5.465 3.551 3.547 11.684-5.778 14.641-4.656 1.481-17.15 6.516-17.15 6.516 0 0-1.77 1.332-1.77 10.793"/><path d="m186.66 177.98c-3.398-1.906-4.648-3.32-4.68-4.01-.07-1.36 9.91-4.575 15.274-6.301 8-2.578 9.875-3.27 9.875-4.176v-17.934c0-.089.019-.128.105-.171 1.481-.813 9.629 2.285 12.758 4.3 1.816 1.184 2.816 2.95 2.816 4.93 0 .273-.019.547-.058.824-.367 2.711-2.774 6.246-8.418 8.04-4.629 1.473-17.06 6.469-17.188 6.52l-.058.023-.051.039c-.199.149-1.941 1.747-1.957 11.07-.723.234-4.512-.957-8.418-3.145"/><path d="m186.66 214.9c-3.398-1.906-4.648-3.32-4.68-4.01-.07-1.359 9.91-4.574 15.274-6.301 8-2.578 9.875-3.274 9.875-4.176v-17.933c0-.09.019-.129.105-.176 1.481-.809 9.629 2.289 12.758 4.304 1.816 1.184 2.816 2.95 2.816 4.93 0 .27-.019.547-.058.824-.367 2.711-2.774 6.246-8.418 8.03-4.629 1.473-17.06 6.47-17.188 6.52l-.058.024-.051.039c-.199.148-1.941 1.746-1.957 11.07-.723.235-4.512-.957-8.418-3.144"/><path d="m206.66 239.17c.023-4.746-.008-14.32-.008-16.64 0-2.52 10.36 1.668 13.407 3.64 4.648 3.02 3.96 9.336-2.055 12.989"/></g><path d="m206.66 239.17c.023-4.746-.008-14.32-.008-16.64 0-2.52 10.36 1.668 13.407 3.64 4.648 3.02 3.96 9.336-2.055 12.989" fill="none" stroke="#fff" stroke-width=".955"/></g></svg>
